X:1
T:De tout le mal
T:Pierre Certon
T:Source : Livre XII de 30 chansons nouvelles à 4 parties---Paris---P.Attaingnant---1543. Editor : André Vierendeels (10/06/18) Notes : Original clefs : C1, C3, C4, F4 Original note values have been halved Editotial accidentals above the staff
T:De tout le mal
T:©
T:©
T:©
C:Pierre Certon
Z:©
%%score [ 1 [ 2 3 ] 4 ]
L:1/8
Q:1/4=120
M:2/2
K:F
V:1 treble nm="Alto" snm="A"
V:2 treble-8 nm="Tenor 1" snm="T 1"
V:3 treble-8 nm="Tenor 2" snm="T 2"
V:4 bass nm="Bass" snm="B"
V:1
 F8 | G2 G2 ABcB | AGFG F4 | E2 E2 F3 E | D2 D2 C4- | C4 z2 C2 | D2 F4 ED | E4 z2 C2 | %8
w: De|tout le mal _ _ _|_ _ _ _ _|* que dung vou-|loir con- stant,|_ me|faict souf- * *|frir sa|
w: Me|rend si bien _ _ _|_ _ _ _ _|* sa- tis- faict|et con- tent|_ que|ie ne- * *|puis ha-|
 F2 E2 F2 G2- | GF F4 E2 |[M:2/4] F4 :|[M:2/2] z2 F2 A2 A2 | G2 G2 B2 B2 | A3 G F4 | E2 E2 F4 | %15
w: gran- de'ho- nes- te-||té,|Ay- ant trop|myeulx es- tre plus|mal _ trai-|cté, et le|
w: ir sa cha- ste-||té,|||||
 G4 A2 A2 | B2 A2 A2 G2 | F4 E4 |: z4 E4 | F4 G4 | ABcB AGFE | F4 E2 E2 | F3 E D2 D2 | C8 | %24
w: sça- voir par|ver- tu e- sti-|mé- e,|que|da- voir|tous _ _ _ _ _ _ _|_ _ ce|que j'ay me- ri-|té,|
w: |||||||||
 z2 C2 D2 F2- | F2 ED E4 | z2 C2 F2 E2 | F2 G3 F F2- | F2 E2 !fermata!F4 :| %29
w: la con- gnois-|* * * sant|moins di- gne|d'es- tr'ay- * mé-|* * e.|
w: |||||
V:2
 c4 d2 f2- | f2 e2 f4 | z2 F2 F2 F2 | G2 G2 B3 B | B2 B2 G2 G2 | AGAB c4 | F4 z2 G2 | c3 c B2 G2 | %8
w: De tout _|_ le mal,|de tout le|mal que dung vou-|loir con- stant, me|faict _ _ _ souf-|frir, me|faict souf- frir sa|
w: Me rend _|_ si bien|me rend si|bien sa- tis- faict|et con- tent, que|ie _ _ _ ne|puis, que|ie ne puis ha-|
 A2 c2 c2 G2 | A2 B2 c4 |[M:2/4] A4 :|[M:2/2] z2 c2 c4 | c4 d2 d2 | c2 c2 d2 d2 | c4 z2 c2 | %15
w: gran- de- ho- ne-|ste- * *|té,|Ay- ant|trop myeulx es-|tre plus mal trai-|cté, et|
w: ir sa cha- ste-||té,|||||
 d2 e2 f2 f2 | f2 e2 f2 e2 | c4 c4 |: z4 c4 | d2 f4 e2 | f4 z2 F2 | F2 F2 G2 G2 | B3 B B2 B2 | %23
w: le sça- voir par|ver- tu e- si-|mé- e,|que|da- * voir|tout, que|da- voir tout ce|que i'ay me- ri-|
w: ||||||||
 G2 G2 AGAB | c2 c2 F4 | z2 F2 c3 c | B2 G2 A2 c2 | c2 G2 A2 B2 | c4 !fermata!A4 :| %29
w: té, la con- * * *|* gnois- sant,|la con- gnois-|sant moins di- gne|d'es- tre'ay- mé- *|* e.|
w: ||||||
V:3
 A4 B2 A2 | c3 B AGFG | AB c4 B2 | c2 c2 F2 F2 | G2 F2 E4 | z2 F2 A4 | B4 c4 | z2 C2 F2 E2 | %8
w: De tout le|mal _ _ _ _ _|_ _ _ _|* que dung vou-|loir con- stant,|me faict|souf- frir|sa gran- de'ho-|
w: Me rend si|bien _ _ _ _ _|_ _ _ _|* sa- tis- faict|et con- tent,|que ie|ne puis|ha- ir sa|
 F2 G2 A2 B2 | A2 GF G4 |[M:2/4] F4 :|[M:2/2] z2 F2 F2 F2 | E2 E2 FEFG | A2 A2 A2 B2 | %14
w: nes- te- * *||té,|Ay- ant trop|myeulx es- tre _ _ _|_ plus mal trai-|
w: cha- ste- * *||té,||||
 G2 G2 A2 c2- | c2 B2 c2 c2 | d2 c2 B2 B2 | A4 G4 |: z4 G4 | B2 A2 c3 B | AGFG AB c2- | %21
w: cté, et le sça-|* * voir par|ver- tu e- sti-|mé- e,|que|da- voir tout _|_ _ _ _ _ _ _|
w: |||||||
 c2 B2 c2 c2 | F3 F G2 F2 | E4 z2 F2 | A4 B4 | c4 z2 C2 | F2 E2 F2 G2 | A2 B2 A2 GF | %28
w: * * * ce|que i'ay me- ri-|té, la|con- gnois-|sant moins|di- gne d'es- tre'ay-|mé- * * * *|
w: |||||||
 G4 !fermata!F4 :| %29
w: * e.|
w: |
V:4
 F,4 B,,2 D,2 | C,2 C,2 F,G,A,G, | F,E,D,C, D,2 D,2 | C,2 C,2 B,,3 B,, | B,,2 B,,2 C,4 | %5
w: De tout le|mal, de tout _ _ _|_ _ _ _ _ le|mal que dung vou-|loir con stant,|
w: Me rend si|bien, me rend _ _ _|_ _ _ _ _ si|bien sa- tis- faict|et con- tent,|
 z2 F,2 F,4 | D,4 C,4 | z2 A,,2 B,,2 C,2 | F,,2 C,2 F,2 _E,2 | F,2 D,2 C,4 |[M:2/4] F,,4 :| %11
w: me faict|souf- frir|sa gran- de'ho-|nes- te- * *||té,|
w: que ie|ne puis,|que ie ne|puis ha- ir sa|cha- * ste-|té,|
[M:2/2] z2 F,,2 F,,G,,A,,B,, | C,2 C,2 B,,2 B,,2 | F,3 E, D,2 B,,2 | C,2 C,2 F,2 A,2 | %15
w: Ay- ant _ _ _|_ trop myeulx es-|tre plus mal trai-|cté, et le sça-|
w: ||||
 G,4 F,2 F,2 | B,,2 C,2 D,2 E,2 | F,4 C,4 |: z4 C,4 | B,,2 D,2 C,2 C,2 | F,G,A,G, F,E,D,C, | %21
w: * voir par|ver- tu e- sti-|mé- e,|que|da- voir tout, que|da- * * * * * * *|
w: ||||||
 D,2 D,2 C,2 C,2 | B,,3 B,, B,,2 B,,2 | C,4 z2 F,2 | F,4 D,4 | C,4 z2 A,,2 | B,,2 C,2 F,,2 C,2 | %27
w: * voir tout ce|que i'ay me- ri-|té, la|con- gnois-|sant moins|di- gne d'es- tre'ay-|
w: ||||||
 F,2 _E,2 F,2 D,2 | C,4 !fermata!F,,4 :| %29
w: mé- * * *|* e.|
w: ||

